storage/app/icons/phosphoricons/bold/jar-bold.svg

<svg xmlns="http://www.w3.org/2000/svg" fill="currentColor" viewBox="0 0 256 256"><path d="M188 49.68V32a20 20 0 0 0-20-20H88a20 20 0 0 0-20 20v17.68A44.06 44.06 0 0 0 36 92v108a44.05 44.05 0 0 0 44 44h96a44.05 44.05 0 0 0 44-44V92a44.06 44.06 0 0 0-32-42.32M164 48h-24V36h24Zm-48-12v12H92V36Zm80 164a20 20 0 0 1-20 20H80a20 20 0 0 1-20-20V92a20 20 0 0 1 20-20h96a20 20 0 0 1 20 20Z"/></svg>

<svg xmlns="http://www.w3.org/2000/svg" viewBox="0 0 256 256" fill="currentColor"><path d="M188,49.68V32a20,20,0,0,0-20-20H88A20,20,0,0,0,68,32V49.68A44.06,44.06,0,0,0,36,92V200a44.05,44.05,0,0,0,44,44h96a44.05,44.05,0,0,0,44-44V92A44.06,44.06,0,0,0,188,49.68ZM164,48H140V36h24ZM116,36V48H92V36Zm80,164a20,20,0,0,1-20,20H80a20,20,0,0,1-20-20V92A20,20,0,0,1,80,72h96a20,20,0,0,1,20,20Z"/></svg>
